usr/share/icons/biglinux-icons-material/scalable/apps/com.github.djaler.formatter.svg

<svg width="24" height="24" viewBox="0 0 24 24" fill="none" xmlns="http://www.w3.org/2000/svg">
<path fill-rule="evenodd" clip-rule="evenodd" d="M9.59604 1.11359C9.71588 1.11486 9.83043 1.0996 9.93969 1.06779C11.3755 0.973736 12.8111 0.977551 14.2467 1.07924C15.5484 1.18066 16.8085 1.46308 18.0269 1.9265C20.0525 2.76044 21.4386 4.20689 22.185 6.26585C22.6119 7.50549 22.8639 8.78021 22.9411 10.09C23.0478 11.7347 23.0096 13.3758 22.8265 15.0133C22.6895 16.1642 22.3916 17.271 21.933 18.3336C21.0824 20.1761 19.704 21.447 17.7978 22.1463C16.2531 22.6682 14.6647 22.943 13.0325 22.9706C11.1966 23.0661 9.37913 22.9287 7.57997 22.5585C4.26839 21.8208 2.22559 19.8018 1.45158 16.5017C1.12311 15.0161 0.974199 13.5124 1.00483 11.9906C0.968176 10.3724 1.14 8.77709 1.52031 7.20471C2.33171 4.11908 4.2905 2.20701 7.39669 1.46852C8.12048 1.29157 8.8536 1.17326 9.59604 1.11359Z" fill="url(#paint0_radial_3_266)"/>
<path d="M7.81613 3H15.7971C16.8499 3 17.5092 3.82629 17.6974 4.816L19.9777 16.8027C20.1662 17.7928 19.1301 18.619 18.0774 18.619H5.91665C4.86392 18.619 3.85869 17.7977 4.01641 16.8027L5.91589 4.816C6.07361 3.82133 6.76339 3 7.81613 3Z" fill="#CCCCCC"/>
<path d="M18.0774 15.1905H5.91589C4.86641 15.1905 4.01565 16.0433 4.01565 17.0952C4.01565 18.1472 4.86641 19 5.91589 19H18.0774C19.1269 19 19.9777 18.1472 19.9777 17.0952C19.9777 16.0433 19.1269 15.1905 18.0774 15.1905Z" fill="#333333"/>
<path d="M14.657 16.7143H7.81612C7.60623 16.7143 7.43608 16.8848 7.43608 17.0952C7.43608 17.3056 7.60623 17.4762 7.81612 17.4762H14.657C14.8669 17.4762 15.037 17.3056 15.037 17.0952C15.037 16.8848 14.8669 16.7143 14.657 16.7143Z" fill="#3889E9"/>
<path opacity="0.452" d="M5.91475 17.8571C6.33454 17.8571 6.67484 17.516 6.67484 17.0952C6.67484 16.6744 6.33454 16.3333 5.91475 16.3333C5.49496 16.3333 5.15465 16.6744 5.15465 17.0952C5.15465 17.516 5.49496 17.8571 5.91475 17.8571Z" fill="url(#paint1_linear_3_266)"/>
<path d="M5.91589 16.7429C5.90842 16.7428 5.90102 16.7443 5.89415 16.7473C5.88729 16.7502 5.8811 16.7545 5.87598 16.76C5.87068 16.765 5.86649 16.7711 5.86368 16.7779C5.86086 16.7846 5.85949 16.7919 5.85964 16.7992V17.083C5.85964 17.0983 5.86458 17.1112 5.87598 17.1223C5.88738 17.1333 5.90068 17.1394 5.91589 17.1394C5.9233 17.1395 5.93065 17.138 5.93746 17.135C5.94426 17.1321 5.95038 17.1277 5.95541 17.1223C5.96071 17.1172 5.96492 17.1111 5.96779 17.1044C5.97067 17.0976 5.97215 17.0904 5.97213 17.083V16.7992C5.97215 16.7919 5.97067 16.7846 5.96779 16.7779C5.96492 16.7712 5.96071 16.7651 5.95541 16.76C5.95032 16.7546 5.9442 16.7503 5.9374 16.7474C5.93061 16.7444 5.92329 16.7429 5.91589 16.7429ZM5.75323 16.8263C5.73802 16.8263 5.72434 16.8263 5.71142 16.8377C5.669 16.8688 5.63457 16.9095 5.61097 16.9565C5.58738 17.0036 5.5753 17.0555 5.57574 17.1082C5.57574 17.1539 5.58563 17.1981 5.60349 17.24C5.62135 17.2819 5.64529 17.3181 5.6757 17.3486C5.73965 17.4115 5.82551 17.447 5.91513 17.4476C5.96073 17.4476 6.00482 17.4385 6.04662 17.421C6.08712 17.4043 6.1239 17.3797 6.15482 17.3486C6.18575 17.3175 6.2102 17.2806 6.22677 17.24C6.25674 17.1705 6.26235 17.0928 6.24268 17.0197C6.22301 16.9466 6.17923 16.8823 6.11845 16.8373C6.11259 16.8326 6.10582 16.8291 6.09856 16.8272C6.09129 16.8252 6.08371 16.8248 6.07627 16.8259C6.06069 16.8259 6.04814 16.8354 6.03902 16.8476C6.03449 16.8535 6.03124 16.8603 6.02948 16.8675C6.02771 16.8747 6.02747 16.8822 6.02876 16.8895C6.03104 16.9048 6.03788 16.9177 6.05042 16.9276C6.0949 16.9605 6.12575 17.0086 6.13711 17.0628C6.14847 17.117 6.13953 17.1735 6.11201 17.2215C6.08449 17.2695 6.0403 17.3057 5.98787 17.3232C5.93544 17.3406 5.87844 17.3381 5.82772 17.3162C5.77298 17.2938 5.72938 17.2505 5.70648 17.1958C5.6866 17.1494 5.68295 17.0976 5.69613 17.0489C5.7093 17.0001 5.73853 16.9572 5.77907 16.9272C5.78522 16.9227 5.7904 16.917 5.79432 16.9105C5.79823 16.904 5.8008 16.8967 5.80187 16.8891C5.80293 16.8818 5.80247 16.8743 5.80051 16.8672C5.79854 16.86 5.79513 16.8534 5.79047 16.8476C5.78618 16.8416 5.78063 16.8365 5.7742 16.8328C5.76777 16.8291 5.76061 16.8269 5.75323 16.8263Z" fill="white"/>
<path opacity="0.15" d="M5.91589 15.1905C4.86315 15.1905 4.01565 16.04 4.01565 17.0952C4.01565 17.1177 4.01793 17.1394 4.01869 17.1615C4.02588 16.6885 4.21862 16.2373 4.55519 15.9056C4.89177 15.574 5.3451 15.3885 5.81707 15.3893H18.1762C18.6483 15.3884 19.1017 15.5738 19.4384 15.9055C19.775 16.2372 19.9678 16.6884 19.975 17.1615C19.9758 17.1394 19.9777 17.1177 19.9777 17.0952C19.9777 16.04 19.1301 15.1905 18.0774 15.1905H5.91589ZM14.4282 6.53448L13.3629 6.53295C13.324 6.53241 13.2859 6.54503 13.255 6.56876C13.2414 6.57896 13.2303 6.59209 13.2224 6.6072C13.2146 6.6223 13.2103 6.63899 13.2098 6.656L13.2082 7.51695C13.2082 7.58476 13.2763 7.64 13.3606 7.64H13.5089L13.5077 8.296L12.3786 8.90743L12.3835 6.4019L12.7765 6.40229C12.7961 6.40286 12.8155 6.39898 12.8333 6.39092C12.8512 6.38287 12.867 6.37087 12.8795 6.35581C12.8901 6.34238 12.8962 6.32596 12.8969 6.30887C12.8977 6.29177 12.893 6.27488 12.8837 6.26057L12.1095 5.048C12.0973 5.03106 12.0812 5.01737 12.0625 5.00814C12.0438 4.99891 12.0232 4.99441 12.0023 4.99505C11.9816 4.99433 11.9609 4.99876 11.9422 5.00792C11.9235 5.01709 11.9074 5.03072 11.8952 5.04762L11.1153 6.2579C11.1059 6.27217 11.1012 6.28905 11.1019 6.30614C11.1026 6.32323 11.1086 6.33967 11.1191 6.35314C11.1316 6.36834 11.1473 6.38049 11.1652 6.38868C11.183 6.39686 11.2025 6.40086 11.2221 6.40038L11.6151 6.40076L11.6079 9.87124L10.3925 9.20762L10.3936 8.68724C10.5821 8.58667 10.7068 8.41448 10.7071 8.21867C10.7083 7.90743 10.3966 7.65486 10.0113 7.65448C9.62629 7.65371 9.31427 7.90552 9.31313 8.21638C9.31275 8.41257 9.43703 8.58514 9.62515 8.68648L9.62363 9.37219C9.62363 9.47505 9.68672 9.57181 9.79313 9.62971L11.6063 10.619L11.6041 11.6891C11.3483 11.7996 11.1723 12.0152 11.1716 12.2663C11.1712 12.6297 11.5349 12.9253 11.9852 12.9261C12.436 12.9265 12.8016 12.6324 12.8023 12.2686C12.8027 12.0175 12.6275 11.8019 12.3725 11.6903L12.3767 9.65562L14.1055 8.71962C14.1261 8.70819 14.1454 8.69524 14.1625 8.68152C14.1967 8.65587 14.2246 8.62281 14.2442 8.58481C14.2638 8.54681 14.2746 8.50486 14.2758 8.46209L14.2769 7.64152H14.4255C14.4645 7.64195 14.5026 7.62921 14.5335 7.60533C14.5471 7.59514 14.5582 7.582 14.566 7.56689C14.5739 7.55179 14.5782 7.53511 14.5787 7.5181L14.5802 6.6579C14.5802 6.58933 14.5126 6.53448 14.4282 6.53448Z" fill="black"/>
<path d="M20.709 15.4685C20.6603 15.3508 20.6055 15.2355 20.5445 15.1225C20.5102 15.0585 20.4737 14.995 20.4352 14.9325C20.2634 14.6561 20.0598 14.4007 19.8287 14.1715C19.0477 13.3905 18.105 13 17 13C15.895 13 14.9525 13.3905 14.1717 14.1715C13.3907 14.9525 13 15.8952 13 17C13 18.1047 13.3907 19.0477 14.1717 19.8287C14.9525 20.6097 15.8955 21 17 21C18.1047 21 19.048 20.6095 19.8287 19.8287C20.2587 19.3982 20.5707 18.9187 20.7637 18.39C20.9212 17.9592 20.9999 17.496 20.9999 17C21.002 16.5938 20.944 16.1895 20.828 15.8002C20.793 15.6877 20.7532 15.577 20.709 15.4685Z" fill="#F2F2F2"/>
<path d="M15 17.25C15 17.7804 15.2107 18.2891 15.5858 18.6642C15.9608 19.0393 16.4695 19.25 17 19.25C18.0932 19.25 18.98 18.4472 18.998 17.358C18.9992 17.347 19 17.336 19 17.325C19 17.1407 18.809 17 18.625 17C18.441 17 18.25 17.1407 18.25 17.325C18.25 18.0612 17.7365 18.5 17 18.5C16.2637 18.5 15.75 17.9865 15.75 17.25C15.75 16.5137 16.2635 16 17 16V16.75L18.5 15.625L17 14.5V15.2497C16.4695 15.2497 15.9608 15.4604 15.5858 15.8355C15.2107 16.2106 15 16.7195 15 17.25Z" fill="#3889E9"/>
<defs>
<radialGradient id="paint0_radial_3_266" cx="0" cy="0" r="1" gradientUnits="userSpaceOnUse" gradientTransform="translate(12 1) rotate(90) scale(22)">
<stop stop-color="#999999"/>
<stop offset="1" stop-color="#4D4D4D"/>
</radialGradient>
<linearGradient id="paint1_linear_3_266" x1="5.95585" y1="17.7597" x2="5.95585" y2="16.2306" gradientUnits="userSpaceOnUse">
<stop stop-color="#040404"/>
<stop offset="1" stop-color="#121212" stop-opacity="0.908"/>
</linearGradient>
</defs>
</svg>

<svg xmlns="http://www.w3.org/2000/svg" width="24" height="24" fill="none"><path fill="url(#a)" fill-rule="evenodd" d="M9.596 1.114c.12 0 .234-.014.344-.046a31.627 31.627 0 0 1 4.307.011c1.301.102 2.561.384 3.78.848 2.025.833 3.412 2.28 4.158 4.339.427 1.24.679 2.514.756 3.824a27.94 27.94 0 0 1-.114 4.923 11.88 11.88 0 0 1-.894 3.32c-.85 1.843-2.229 3.114-4.135 3.813a15.624 15.624 0 0 1-4.765.825 21.423 21.423 0 0 1-5.453-.413c-3.312-.737-5.354-2.756-6.128-6.056a19.047 19.047 0 0 1-.447-4.511 18.491 18.491 0 0 1 .515-4.786c.812-3.086 2.77-4.998 5.877-5.736a13.953 13.953 0 0 1 2.199-.355Z" clip-rule="evenodd"/><path fill="#CCC" d="M7.816 3h7.981c1.053 0 1.712.826 1.9 1.816l2.28 11.987c.19.99-.847 1.816-1.9 1.816H5.917c-1.053 0-2.058-.821-1.9-1.816L5.915 4.816C6.074 3.821 6.763 3 7.816 3Z"/><path fill="#333" d="M18.077 15.19H5.916c-1.05 0-1.9.853-1.9 1.905S4.866 19 5.916 19h12.161c1.05 0 1.9-.853 1.9-1.905s-.85-1.904-1.9-1.904Z"/><path fill="#3889E9" d="M14.657 16.714h-6.84a.38.38 0 0 0 0 .762h6.84a.38.38 0 0 0 0-.762Z"/><path fill="url(#b)" d="M5.915 17.857a.761.761 0 1 0-.002-1.522.761.761 0 0 0 .002 1.522Z" opacity=".452"/><path fill="#fff" d="M5.916 16.743a.053.053 0 0 0-.04.017.052.052 0 0 0-.016.04v.283a.056.056 0 0 0 .056.056.053.053 0 0 0 .04-.017.055.055 0 0 0 .016-.039v-.284a.054.054 0 0 0-.017-.039.054.054 0 0 0-.04-.017Zm-.163.083c-.015 0-.029 0-.042.012a.332.332 0 0 0-.108.402.341.341 0 0 0 .073.109.345.345 0 0 0 .37.072.33.33 0 0 0 .18-.181.336.336 0 0 0-.108-.403.054.054 0 0 0-.042-.011c-.015 0-.028.01-.037.022a.054.054 0 0 0-.01.042c.002.015.009.028.021.038a.226.226 0 0 1-.222.388.224.224 0 0 1-.049-.389.057.057 0 0 0 .023-.038.054.054 0 0 0-.012-.041.052.052 0 0 0-.037-.022Z"/><path fill="#000" d="M5.916 15.19c-1.053 0-1.9.85-1.9 1.905 0 .023.002.044.003.067a1.794 1.794 0 0 1 1.798-1.772h12.36a1.793 1.793 0 0 1 1.798 1.771c0-.022.003-.043.003-.066a1.898 1.898 0 0 0-1.9-1.904H5.915Zm8.512-8.656-1.065-.001a.173.173 0 0 0-.108.036.114.114 0 0 0-.045.087l-.002.86c0 .069.068.124.153.124h.148l-.001.656-1.13.611.005-2.505h.394a.129.129 0 0 0 .103-.046.081.081 0 0 0 .004-.095l-.774-1.213a.127.127 0 0 0-.108-.053.127.127 0 0 0-.107.053l-.78 1.21a.082.082 0 0 0 .004.095.13.13 0 0 0 .103.047h.393l-.007 3.471-1.216-.663.002-.52c.188-.101.313-.274.313-.47.001-.31-.31-.563-.696-.564-.385 0-.697.252-.698.562 0 .197.124.37.312.47l-.001.686c0 .103.063.2.17.258l1.812.989-.002 1.07c-.256.11-.432.326-.432.577 0 .364.363.66.813.66.451 0 .817-.294.817-.657 0-.252-.175-.467-.43-.579l.005-2.034 1.728-.936a.408.408 0 0 0 .057-.038.283.283 0 0 0 .114-.22v-.82h.15a.174.174 0 0 0 .107-.037.112.112 0 0 0 .046-.087l.001-.86c0-.069-.067-.124-.152-.124Z" opacity=".15"/><path fill="#F2F2F2" d="M20.709 15.469a3.73 3.73 0 0 0-.274-.537 4.179 4.179 0 0 0-.606-.76A3.854 3.854 0 0 0 17 13c-1.105 0-2.047.39-2.828 1.171A3.854 3.854 0 0 0 13 17c0 1.105.39 2.048 1.172 2.829A3.853 3.853 0 0 0 17 21c1.105 0 2.048-.39 2.829-1.171.43-.43.742-.91.935-1.439.157-.43.236-.894.236-1.39a4.127 4.127 0 0 0-.172-1.2 4.137 4.137 0 0 0-.119-.332Z"/><path fill="#3889E9" d="M15 17.25a2 2 0 0 0 2 2c1.093 0 1.98-.803 1.998-1.892a.304.304 0 0 0 .002-.033c0-.184-.191-.325-.375-.325s-.375.14-.375.325c0 .736-.514 1.175-1.25 1.175s-1.25-.514-1.25-1.25S16.264 16 17 16v.75l1.5-1.125L17 14.5v.75a2 2 0 0 0-2 2Z"/><defs><radialGradient id="a" cx="0" cy="0" r="1" gradientTransform="matrix(0 22 -22 0 12 1)" gradientUnits="userSpaceOnUse"><stop stop-color="#999"/><stop offset="1" stop-color="#4D4D4D"/></radialGradient><linearGradient id="b" x1="5.956" x2="5.956" y1="17.76" y2="16.231" gradientUnits="userSpaceOnUse"><stop stop-color="#040404"/><stop offset="1" stop-color="#121212" stop-opacity=".908"/></linearGradient></defs></svg>
